packages/radix-icons/twoTone/15/stack.svg

<svg width="15" height="15" fill="none" xmlns="http://www.w3.org/2000/svg">
  <path
    fill-rule="evenodd"
    clip-rule="evenodd"
    d="M1.99999 5.5L7.49999 8.75L13 5.5L7.49999 2.25L1.99999 5.5ZM2.25435 8.31954C2.01661 8.17906 1.71001 8.2579 1.56952 8.49564C1.42904 8.73337 1.50788 9.03998 1.74562 9.18046L7.24562 12.4305C7.40253 12.5232 7.59745 12.5232 7.75435 12.4305L13.2544 9.18046C13.4921 9.03998 13.5709 8.73337 13.4305 8.49564C13.29 8.2579 12.9834 8.17906 12.7456 8.31954L7.49999 11.4192L2.25435 8.31954Z"
    fill="currentColor"
    opacity=".2"
  />
  <path
    fill-rule="evenodd"
    clip-rule="evenodd"
    d="M7.75435 1.81954C7.59745 1.72682 7.40253 1.72682 7.24562 1.81954L1.74562 5.06954C1.59339 5.15949 1.49999 5.32317 1.49999 5.5C1.49999 5.67683 1.59339 5.84051 1.74562 5.93046L7.24562 9.18046C7.40253 9.27318 7.59745 9.27318 7.75435 9.18046L13.2544 5.93046C13.4066 5.84051 13.5 5.67683 13.5 5.5C13.5 5.32317 13.4066 5.15949 13.2544 5.06954L7.75435 1.81954ZM7.49999 8.16923L2.98283 5.5L7.49999 2.83077L12.0171 5.5L7.49999 8.16923ZM2.25435 8.31954C2.01661 8.17906 1.71001 8.2579 1.56952 8.49564C1.42904 8.73337 1.50788 9.03998 1.74562 9.18046L7.24562 12.4305C7.40253 12.5232 7.59745 12.5232 7.75435 12.4305L13.2544 9.18046C13.4921 9.03998 13.5709 8.73337 13.4305 8.49564C13.29 8.2579 12.9834 8.17906 12.7456 8.31954L7.49999 11.4192L2.25435 8.31954Z"
    fill="currentColor"
  />
</svg>

<svg width="15" height="15" fill="none" xmlns="http://www.w3.org/2000/svg">
  <path
    fill-rule="evenodd"
    clip-rule="evenodd"
    d="M2 5.5l5.5 3.25L13 5.5 7.5 2.25 2 5.5zm.254 2.82a.5.5 0 00-.508.86l5.5 3.25a.5.5 0 00.508 0l5.5-3.25a.5.5 0 00-.508-.86L7.5 11.42l-5.246-3.1z"
    fill="currentColor"
    opacity=".2"
  />
  <path
    fill-rule="evenodd"
    clip-rule="evenodd"
    d="M7.754 1.82a.5.5 0 00-.508 0l-5.5 3.25a.5.5 0 000 .86l5.5 3.25a.5.5 0 00.508 0l5.5-3.25a.5.5 0 000-.86l-5.5-3.25zM7.5 8.17L2.983 5.5 7.5 2.83l4.517 2.67L7.5 8.17zm-5.246.15a.5.5 0 00-.508.86l5.5 3.25a.5.5 0 00.508 0l5.5-3.25a.5.5 0 00-.508-.86L7.5 11.42l-5.246-3.1z"
    fill="currentColor"
  />
</svg>
